!!!OTL: "Buko von Halberstadt" BUHKOEHKEN VAN HALBERSTADT
!!!ARE: Europa, Mitteleuropa, Deutschland
!!!SCT: Z1374
!!!YEM: Copyright 1995, estate of Helmut Schaffrath.
**kern
*ICvox
*Ivox
*M2/4
*k[b-]
*F:
=1
{4cc
16a
16a
8dd
=2
8cc
16cc
16b-
4a}
=3
{8cc
16cc
16b-
8a
8dd
=4
8cc
16cc
16b-
8a}
{8c
=5
8f
8g
8a
8f
=6
8b-
8a
8g}
{8a
=7
8f
8g
8a
8f
=8
8b-
8a
8g}
{8g
=9
8cc
16a
16a
8b-
16a
16g
=10
4g
4f}
==
!!!AGN: Kinder - Lied
!!!ONB: ESAC (Essen Associative Code) Database: ZUCCAL
!!!AMT: simple duple
!!!AIN: vox
!!!EED: Helmut Schaffrath
!!!EEV: 1.0
*-
